findly-builder/apps/searchassist/src/assets/icons/onboarding/whatsnew.svg

<svg width="40" height="40" viewBox="0 0 40 40" fill="none" xmlns="http://www.w3.org/2000/svg">
<path d="M20 35C28.2843 35 35 28.2843 35 20C35 11.7157 28.2843 5 20 5C11.7157 5 5 11.7157 5 20C5 28.2843 11.7157 35 20 35Z" fill="url(#paint0_linear_629_32404)"/>
<path d="M5.83268 26.6667H34.166C35.0868 26.6667 35.8327 25.9209 35.8327 25V15C35.8327 14.0792 35.0868 13.3334 34.166 13.3334L5.83268 13.3334C4.91185 13.3334 4.16602 14.0792 4.16602 15L4.16602 25C4.16602 25.9209 4.91185 26.6667 5.83268 26.6667Z" fill="url(#paint1_linear_629_32404)"/>
<path d="M13.766 23.3332H12.1743L9.28846 18.934C9.1193 18.6765 9.0018 18.4832 8.9368 18.3532H8.91763C8.94346 18.6007 8.9568 18.9782 8.9568 19.4857V23.3332H7.4668V16.3315H9.16596L11.9443 20.594C12.071 20.7857 12.1885 20.9765 12.296 21.1657H12.3151C12.2893 21.0032 12.276 20.6824 12.276 20.204V16.3324H13.7651V23.3332H13.766Z" fill="white"/>
<path d="M19.5664 23.3332H15.3672V16.3315H19.4055V17.6157H16.9447V19.1732H19.2347V20.4524H16.9447V22.054H19.5664V23.3332Z" fill="white"/>
<path d="M30.0499 16.3315L28.1991 23.3332H26.4508L25.2883 18.8407C25.2266 18.6065 25.1891 18.344 25.1758 18.0549H25.1566C25.1274 18.374 25.0849 18.6357 25.0299 18.8407L23.8383 23.3332H22.0166L20.1758 16.3315H21.8991L22.8858 20.9949C22.9283 21.1932 22.9591 21.4607 22.9783 21.7957H23.0074C23.0208 21.5449 23.0674 21.2715 23.1491 20.9757L24.4183 16.3324H26.1074L27.2549 21.0349C27.2974 21.2074 27.3349 21.4582 27.3674 21.7865H27.3866C27.4 21.529 27.4341 21.269 27.4891 21.0049L28.4558 16.3324H30.0499V16.3315Z" fill="white"/>
<path d="M31.7792 23.4457C31.5184 23.4457 31.3042 23.3665 31.135 23.209C30.9659 23.0515 30.8809 22.8599 30.8809 22.6357C30.8809 22.4015 30.9667 22.209 31.1375 22.0599C31.3084 21.9107 31.5225 21.8349 31.78 21.8349C32.0409 21.8349 32.2534 21.9107 32.42 22.0615C32.5867 22.2124 32.6692 22.404 32.6692 22.6349C32.6692 22.869 32.5867 23.0632 32.4225 23.2157C32.2584 23.3682 32.0425 23.4457 31.7792 23.4457ZM32.58 16.3315L32.3892 21.1557H31.1392L30.9584 16.3315H32.58Z" fill="white"/>
<path opacity="0.05" d="M6.57812 13.3333L33.4231 13.3333C33.2823 13.0508 33.1356 12.7725 32.9773 12.5L7.02396 12.5C6.86563 12.7725 6.71896 13.0508 6.57812 13.3333Z" fill="black"/>
<path opacity="0.07" d="M6.57812 13.3333L33.4231 13.3333C33.3548 13.1958 33.2948 13.0525 33.2223 12.9166L6.77896 12.9166C6.70646 13.0525 6.64729 13.1958 6.57812 13.3333Z" fill="black"/>
<path opacity="0.05" d="M33.4231 26.6666H6.57812C6.71896 26.9491 6.86563 27.2275 7.02396 27.5H32.9781C33.1356 27.2275 33.2823 26.9491 33.4231 26.6666Z" fill="black"/>
<path opacity="0.07" d="M33.4231 26.6666H6.57812C6.64646 26.805 6.70646 26.9475 6.77896 27.0833H33.2223C33.2948 26.9475 33.354 26.805 33.4231 26.6666Z" fill="black"/>
<defs>
<linearGradient id="paint0_linear_629_32404" x1="9.64167" y1="9.33417" x2="30.2033" y2="30.5067" gradientUnits="userSpaceOnUse">
<stop stop-color="#FFD869"/>
<stop offset="1" stop-color="#FEC52B"/>
</linearGradient>
<linearGradient id="paint1_linear_629_32404" x1="12.8518" y1="5.58587" x2="27.4827" y2="35.0917" gradientUnits="userSpaceOnUse">
<stop stop-color="#F44F5A"/>
<stop offset="0.443" stop-color="#EE3D4A"/>
<stop offset="1" stop-color="#E52030"/>
</linearGradient>
</defs>
</svg>

<svg width="40" height="40" fill="none" xmlns="http://www.w3.org/2000/svg"><path d="M20 35c8.284 0 15-6.716 15-15 0-8.284-6.716-15-15-15-8.284 0-15 6.716-15 15 0 8.284 6.716 15 15 15Z" fill="url(#a)"/><path d="M5.833 26.667h28.333c.92 0 1.667-.746 1.667-1.667V15c0-.92-.746-1.667-1.667-1.667H5.833c-.921 0-1.667.746-1.667 1.667v10c0 .92.746 1.667 1.667 1.667Z" fill="url(#b)"/><path d="M13.766 23.333h-1.592l-2.886-4.399a6.451 6.451 0 0 1-.351-.58h-.02c.026.247.04.624.04 1.132v3.847h-1.49v-7.002h1.699l2.778 4.263c.127.192.244.383.352.572h.02c-.027-.163-.04-.484-.04-.962v-3.872h1.49v7.001Zm5.8 0h-4.199v-7.002h4.038v1.285h-2.46v1.557h2.29v1.28h-2.29v1.601h2.621v1.28Zm10.484-7.002-1.85 7.002h-1.75l-1.162-4.492a3.774 3.774 0 0 1-.112-.786h-.02c-.029.319-.071.58-.126.786l-1.192 4.492h-1.821l-1.841-7.002h1.723l.987 4.664a5.5 5.5 0 0 1 .092.8h.03c.013-.25.06-.524.141-.82l1.27-4.643h1.688l1.148 4.703c.042.172.08.423.112.752h.02a5.08 5.08 0 0 1 .102-.782l.967-4.673h1.594Zm1.73 7.115a.908.908 0 0 1-.645-.237.756.756 0 0 1-.254-.573.73.73 0 0 1 .256-.576.942.942 0 0 1 .643-.225c.26 0 .473.076.64.226a.74.74 0 0 1 .25.574.76.76 0 0 1-.248.58c-.164.153-.38.23-.643.23Zm.8-7.115-.19 4.825h-1.25l-.182-4.825h1.622Z" fill="#fff"/><path opacity=".05" d="M6.578 13.333h26.845a14.78 14.78 0 0 0-.446-.833H7.024c-.158.273-.305.55-.446.833Z" fill="#000"/><path opacity=".07" d="M6.578 13.333h26.845c-.068-.137-.128-.28-.2-.416H6.778c-.073.136-.132.279-.2.416Z" fill="#000"/><path opacity=".05" d="M33.423 26.667H6.578c.141.282.288.56.446.833h25.954c.158-.273.304-.55.445-.833Z" fill="#000"/><path opacity=".07" d="M33.423 26.667H6.578c.068.138.128.28.201.416h26.443c.073-.135.132-.278.201-.416Z" fill="#000"/><defs><linearGradient id="a" x1="9.642" y1="9.334" x2="30.203" y2="30.507" gradientUnits="userSpaceOnUse"><stop stop-color="#FFD869"/><stop offset="1" stop-color="#FEC52B"/></linearGradient><linearGradient id="b" x1="12.852" y1="5.586" x2="27.483" y2="35.092" gradientUnits="userSpaceOnUse"><stop stop-color="#F44F5A"/><stop offset=".443" stop-color="#EE3D4A"/><stop offset="1" stop-color="#E52030"/></linearGradient></defs></svg>
